X:1
T:Unemployment Stomp
M:4/4
L:1/8
K:A
 AA| AA AA A/2A/2 AA A| A2 A2 A2 A2| A8| z4 z2 AA| AA AA A/2A/2 AA A|\
 A2 A2 A2 A2| A8| z4 z2 GA| B2 B2 B2 A2| B/2B/2 BB A =c2 BA| A8| z4 z2||\


